austria/municipalities/41401.svg

<?xml version="1.0" encoding="UTF-8"?>
<!DOCTYPE svg PUBLIC "-//W3C//DTD SVG 1.1//EN" "http://www.w3.org/Graphics/SVG/1.1/DTD/svg11.dtd">
<svg xmlns="http://www.w3.org/2000/svg" version="1.1" width="100px" height="123px" style="shape-rendering:geometricPrecision; text-rendering:geometricPrecision; image-rendering:optimizeQuality; fill-rule:evenodd; clip-rule:evenodd" xmlns:xlink="http://www.w3.org/1999/xlink">
<g><path style="opacity:1" fill="#f2f4f4" d="M -0.5,-0.5 C 32.8333,-0.5 66.1667,-0.5 99.5,-0.5C 99.5,40.5 99.5,81.5 99.5,122.5C 66.1667,122.5 32.8333,122.5 -0.5,122.5C -0.5,81.5 -0.5,40.5 -0.5,-0.5 Z"/></g>
<g><path style="opacity:1" fill="#0a0a0e" d="M 1.5,1.5 C 33.8333,1.5 66.1667,1.5 98.5,1.5C 98.6666,26.8355 98.5,52.1689 98,77.5C 93.4448,104.886 77.2782,119.552 49.5,121.5C 24.8675,119.69 9.03412,107.023 2,83.5C 1.50002,56.1687 1.33336,28.8354 1.5,1.5 Z"/></g>
<g><path style="opacity:1" fill="#a69745" d="M 4.5,87.5 C 5.92206,87.7496 6.92206,88.583 7.5,90C 10.3647,90.1829 13.0314,90.6829 15.5,91.5C 12.4816,91.6646 9.48162,91.498 6.5,91C 5.69499,89.8873 5.02832,88.7206 4.5,87.5 Z"/></g>
<g><path style="opacity:1" fill="#05729e" d="M 61.5,87.5 C 63.7919,89.2898 66.4585,90.7898 69.5,92C 76.6938,93.9431 84.0271,94.9431 91.5,95C 79.5035,114.329 62.1702,122.329 39.5,119C 24.3497,115.331 13.683,106.498 7.5,92.5C 12.8437,92.666 18.1771,92.4994 23.5,92C 26.4568,91.7206 29.1234,90.8873 31.5,89.5C 34.6489,89.5848 37.3155,88.5848 39.5,86.5C 43.3722,84.8069 46.8722,82.4736 50,79.5C 53.1067,83.2959 56.94,85.9626 61.5,87.5 Z"/></g>
<g><path style="opacity:1" fill="#eec510" d="M 96.5,5.5 C 85.7549,7.44215 74.7549,8.10882 63.5,7.5C 63.4955,11.5341 63.1621,15.5341 62.5,19.5C 60.9202,16.737 59.0869,14.0703 57,11.5C 56.6667,14.8333 56.3333,18.1667 56,21.5C 54.254,17.6733 52.254,14.0066 50,10.5C 47.6667,14.5 45.3333,18.5 43,22.5C 42.6667,19.1667 42.3333,15.8333 42,12.5C 41.1482,13.5707 40.3149,14.5707 39.5,15.5C 39.5,12.8333 39.5,10.1667 39.5,7.5C 28.5,7.5 17.5,7.5 6.5,7.5C 6.5,28.8333 6.5,50.1667 6.5,71.5C 7.93047,71.4208 9.26381,71.7542 10.5,72.5C 11.8518,71.4756 13.1851,70.4756 14.5,69.5C 12.5534,73.0585 10.8867,76.7252 9.5,80.5C 14.5111,80.6659 19.5111,80.4993 24.5,80C 33.0521,66.3882 41.7187,52.8882 50.5,39.5C 58.3516,52.5451 66.185,65.5451 74,78.5C 74.5,79 75,79.5 75.5,80C 80.202,80.8283 84.8687,80.6616 89.5,79.5C 87.5326,75.703 85.3659,72.0364 83,68.5C 82.6667,63.5 82.3333,58.5 82,53.5C 80.3375,51.8421 79.5041,49.8421 79.5,47.5C 80.5307,48.355 81.6974,49.0217 83,49.5C 84.3002,48.2927 85.8002,47.6261 87.5,47.5C 87.8948,50.5225 86.8948,51.5225 84.5,50.5C 82.7138,56.8989 83.7138,62.7323 87.5,68C 87.2645,68.8732 86.9312,69.7065 86.5,70.5C 88.7662,71.3142 91.0995,71.8142 93.5,72C 93.7467,73.8133 94.08,75.6467 94.5,77.5C 95.1687,75.3691 95.8354,73.3691 96.5,71.5C 96.6696,78.4862 95.3362,85.1528 92.5,91.5C 86.5276,92.6636 80.5276,92.8303 74.5,92C 70.1457,90.486 65.8124,88.986 61.5,87.5C 57.6274,84.6354 53.7941,81.6354 50,78.5C 46.0417,80.6326 42.5417,83.2992 39.5,86.5C 36.5568,86.9802 33.8902,87.9802 31.5,89.5C 26.1535,90.0733 20.8202,90.74 15.5,91.5C 13.0314,90.6829 10.3647,90.1829 7.5,90C 6.92206,88.583 5.92206,87.7496 4.5,87.5C 4.06704,84.8344 3.56704,82.1677 3,79.5C 2.50003,54.1689 2.33336,28.8355 2.5,3.5C 34.1845,2.84077 65.5178,3.50744 96.5,5.5 Z"/></g>
<g><path style="opacity:1" fill="#191811" d="M 39.5,86.5 C 37.3155,88.5848 34.6489,89.5848 31.5,89.5C 33.8902,87.9802 36.5568,86.9802 39.5,86.5 Z"/></g>
<g><path style="opacity:1" fill="#0d1110" d="M 61.5,87.5 C 56.94,85.9626 53.1067,83.2959 50,79.5C 46.8722,82.4736 43.3722,84.8069 39.5,86.5C 42.5417,83.2992 46.0417,80.6326 50,78.5C 53.7941,81.6354 57.6274,84.6354 61.5,87.5 Z"/></g>
<g><path style="opacity:1" fill="#070607" d="M 62.5,19.5 C 63.1283,22.09 64.295,24.4234 66,26.5C 65.1298,34.4203 67.1298,41.4203 72,47.5C 72.3333,44.8333 72.6667,42.1667 73,39.5C 74.9461,42.4202 77.1128,45.0869 79.5,47.5C 79.5041,49.8421 80.3375,51.8421 82,53.5C 82.3333,58.5 82.6667,63.5 83,68.5C 85.3659,72.0364 87.5326,75.703 89.5,79.5C 84.8687,80.6616 80.202,80.8283 75.5,80C 75,79.5 74.5,79 74,78.5C 66.185,65.5451 58.3516,52.5451 50.5,39.5C 41.7187,52.8882 33.0521,66.3882 24.5,80C 19.5111,80.4993 14.5111,80.6659 9.5,80.5C 10.8867,76.7252 12.5534,73.0585 14.5,69.5C 14.9077,58.1554 19.0744,48.1554 27,39.5C 27.3333,42.1667 27.6667,44.8333 28,47.5C 29,46.1667 30,44.8333 31,43.5C 32.1062,38.2305 32.7728,32.8972 33,27.5C 35.4333,23.6326 37.6,19.6326 39.5,15.5C 40.3149,14.5707 41.1482,13.5707 42,12.5C 42.3333,15.8333 42.6667,19.1667 43,22.5C 45.3333,18.5 47.6667,14.5 50,10.5C 52.254,14.0066 54.254,17.6733 56,21.5C 56.3333,18.1667 56.6667,14.8333 57,11.5C 59.0869,14.0703 60.9202,16.737 62.5,19.5 Z"/></g>
<g><path style="opacity:1" fill="#f4c703" d="M 96.5,5.5 C 96.5,27.5 96.5,49.5 96.5,71.5C 95.8354,73.3691 95.1687,75.3691 94.5,77.5C 94.08,75.6467 93.7467,73.8133 93.5,72C 91.0995,71.8142 88.7662,71.3142 86.5,70.5C 86.9312,69.7065 87.2645,68.8732 87.5,68C 83.7138,62.7323 82.7138,56.8989 84.5,50.5C 86.8948,51.5225 87.8948,50.5225 87.5,47.5C 85.8002,47.6261 84.3002,48.2927 83,49.5C 81.6974,49.0217 80.5307,48.355 79.5,47.5C 77.1128,45.0869 74.9461,42.4202 73,39.5C 72.6667,42.1667 72.3333,44.8333 72,47.5C 67.1298,41.4203 65.1298,34.4203 66,26.5C 64.295,24.4234 63.1283,22.09 62.5,19.5C 63.1621,15.5341 63.4955,11.5341 63.5,7.5C 74.7549,8.10882 85.7549,7.44215 96.5,5.5 Z"/></g>
<g><path style="opacity:1" fill="#f3c705" d="M 39.5,15.5 C 37.6,19.6326 35.4333,23.6326 33,27.5C 32.7728,32.8972 32.1062,38.2305 31,43.5C 30,44.8333 29,46.1667 28,47.5C 27.6667,44.8333 27.3333,42.1667 27,39.5C 19.0744,48.1554 14.9077,58.1554 14.5,69.5C 13.1851,70.4756 11.8518,71.4756 10.5,72.5C 9.26381,71.7542 7.93047,71.4208 6.5,71.5C 6.5,50.1667 6.5,28.8333 6.5,7.5C 17.5,7.5 28.5,7.5 39.5,7.5C 39.5,10.1667 39.5,12.8333 39.5,15.5 Z"/></g>
</svg>

<svg xmlns="http://www.w3.org/2000/svg" width="100" height="123" style="shape-rendering:geometricPrecision;text-rendering:geometricPrecision;image-rendering:optimizeQuality;fill-rule:evenodd;clip-rule:evenodd"><path style="opacity:1" fill="#f2f4f4" d="M-.5-.5h100v123H-.5V-.5z"/><path style="opacity:1" fill="#0a0a0e" d="M1.5 1.5h97c.167 25.335 0 50.669-.5 76-4.555 27.386-20.722 42.052-48.5 44-24.633-1.81-40.466-14.477-47.5-38-.5-27.331-.667-54.665-.5-82z"/><path style="opacity:1" fill="#a69745" d="M4.5 87.5c1.422.25 2.422 1.083 3 2.5 2.865.183 5.531.683 8 1.5a40.936 40.936 0 0 1-9-.5 18.492 18.492 0 0 1-2-3.5z"/><path style="opacity:1" fill="#05729e" d="M61.5 87.5c2.292 1.79 4.959 3.29 8 4.5a86.549 86.549 0 0 0 22 3c-11.996 19.329-29.33 27.329-52 24-15.15-3.669-25.817-12.502-32-26.5 5.344.166 10.677 0 16-.5 2.957-.28 5.623-1.113 8-2.5 3.149.085 5.816-.915 8-3 3.872-1.693 7.372-4.026 10.5-7 3.107 3.796 6.94 6.463 11.5 8z"/><path style="opacity:1" fill="#eec510" d="M96.5 5.5c-10.745 1.942-21.745 2.609-33 2a73.246 73.246 0 0 1-1 12 59.702 59.702 0 0 0-5.5-8l-1 10a87.443 87.443 0 0 0-6-11l-7 12-1-10a81.718 81.718 0 0 1-2.5 3v-8h-33v64a6.845 6.845 0 0 1 4 1 493.061 493.061 0 0 1 4-3 81.329 81.329 0 0 0-5 11c5.011.166 10.011 0 15-.5a2461.496 2461.496 0 0 1 26-40.5 45452.823 45452.823 0 0 0 23.5 39l1.5 1.5c4.702.828 9.369.662 14-.5a114.493 114.493 0 0 0-6.5-11l-1-15c-1.662-1.658-2.496-3.658-2.5-6a11.81 11.81 0 0 0 3.5 2c1.3-1.207 2.8-1.874 4.5-2 .395 3.023-.605 4.023-3 3-1.786 6.399-.786 12.232 3 17.5a11.477 11.477 0 0 1-1 2.5c2.266.814 4.6 1.314 7 1.5.247 1.813.58 3.647 1 5.5a168.86 168.86 0 0 1 2-6c.17 6.986-1.164 13.653-4 20a54.56 54.56 0 0 1-18 .5 4946.253 4946.253 0 0 0-13-4.5 271.728 271.728 0 0 1-11.5-9 41.598 41.598 0 0 0-10.5 8c-2.943.48-5.61 1.48-8 3-5.346.573-10.68 1.24-16 2-2.469-.817-5.135-1.317-8-1.5-.578-1.417-1.578-2.25-3-2.5a168.09 168.09 0 0 0-1.5-8c-.5-25.331-.667-50.665-.5-76 31.684-.66 63.018.007 94 2z"/><path style="opacity:1" fill="#191811" d="M39.5 86.5c-2.184 2.085-4.851 3.085-8 3 2.39-1.52 5.057-2.52 8-3z"/><path style="opacity:1" fill="#0d1110" d="M61.5 87.5c-4.56-1.537-8.393-4.204-11.5-8-3.128 2.974-6.628 5.307-10.5 7a41.598 41.598 0 0 1 10.5-8 271.728 271.728 0 0 0 11.5 9z"/><path style="opacity:1" fill="#070607" d="M62.5 19.5a17.343 17.343 0 0 0 3.5 7c-.87 7.92 1.13 14.92 6 21l1-8a53.61 53.61 0 0 0 6.5 8c.004 2.342.838 4.342 2.5 6l1 15a114.493 114.493 0 0 1 6.5 11 33.227 33.227 0 0 1-14 .5L74 78.5a45452.823 45452.823 0 0 1-23.5-39 2461.496 2461.496 0 0 0-26 40.5c-4.989.5-9.989.666-15 .5a81.329 81.329 0 0 1 5-11c.408-11.345 4.574-21.345 12.5-30l1 8 3-4a97.758 97.758 0 0 0 2-16c2.433-3.867 4.6-7.867 6.5-12 .815-.93 1.648-1.93 2.5-3l1 10 7-12a87.443 87.443 0 0 1 6 11l1-10a59.702 59.702 0 0 1 5.5 8z"/><path style="opacity:1" fill="#f4c703" d="M96.5 5.5v66a168.86 168.86 0 0 0-2 6 63.794 63.794 0 0 1-1-5.5 26.706 26.706 0 0 1-7-1.5c.431-.793.764-1.627 1-2.5-3.786-5.268-4.786-11.101-3-17.5 2.395 1.023 3.395.023 3-3-1.7.126-3.2.793-4.5 2a11.81 11.81 0 0 1-3.5-2 53.61 53.61 0 0 1-6.5-8l-1 8c-4.87-6.08-6.87-13.08-6-21a17.343 17.343 0 0 1-3.5-7 73.246 73.246 0 0 0 1-12c11.255.609 22.255-.058 33-2z"/><path style="opacity:1" fill="#f3c705" d="M39.5 15.5a104.412 104.412 0 0 1-6.5 12 97.758 97.758 0 0 1-2 16l-3 4-1-8c-7.926 8.655-12.092 18.655-12.5 30a493.061 493.061 0 0 0-4 3 6.845 6.845 0 0 0-4-1v-64h33v8z"/></svg>
